X:1
T: Lawson's Favourite
C:
R:Reel
Q: 232
K:D
M:4/4
L:1/8
d2 AG FD DF|Ec ((3ccc) Ec ((3ccc) |((3dcB) ((3cBA) BG AG|FG EF Dg fe|
d2 AG FD DF|Ec ((3ccc) AB ce|dB cA BG AG|FG EF D2 g2|
|:fd ((3ddd) fd ad|ed cd ef ge|fd ((3ddd) fd ad|cA GE D2 de|
fd ((3ddd) fd ad|ed cd ef ge|((3fga) ge fd ec|Ag fe de fe:|
d2 AG FD DF|Ec ((3ccc) Ec ((3ccc) |((3dcB) ((3cBA) BG AG|FG EF Dg fe|
d2 AG FD DF|Ec ((3ccc) AB ce|dB cA BG AG|FG EF D2 D2||
